src/front_assets/svg/facebook.svg

<svg width="21" height="21" viewBox="0 0 21 21" fill="none" xmlns="http://www.w3.org/2000/svg">
<path d="M21 10.5643C21 4.72966 16.2992 0 10.5013 0C4.70079 0.00131234 0 4.72966 0 10.5656C0 15.8373 3.83989 20.2073 8.85827 21V13.6181H6.19422V10.5656H8.86089V8.23622C8.86089 5.58924 10.4291 4.1273 12.8268 4.1273C13.9764 4.1273 15.1772 4.33333 15.1772 4.33333V6.93176H13.853C12.5499 6.93176 12.143 7.74672 12.143 8.58268V10.5643H15.0538L14.5892 13.6168H12.1417V20.9987C17.1601 20.206 21 15.836 21 10.5643Z" fill="#2563eb"/>
</svg>

<svg xmlns="http://www.w3.org/2000/svg" width="21" height="21" fill="none"><path fill="#2563eb" d="M21 10.564C21 4.73 16.3 0 10.501 0 4.701.001 0 4.73 0 10.566 0 15.837 3.84 20.207 8.858 21v-7.382H6.194v-3.052h2.667v-2.33c0-2.647 1.568-4.109 3.966-4.109 1.15 0 2.35.206 2.35.206v2.599h-1.324c-1.303 0-1.71.815-1.71 1.65v1.982h2.91l-.464 3.053h-2.447v7.382C17.16 20.206 21 15.836 21 10.564"/></svg>
